!!!!SEGMENT: pl-kk--kk-i-382--057_rudkowski-mateusz--czego-chcesz-od-nas-panie.krn
!!!id: 18xx:1559
!!!COM: Rudkowski, Mateusz
!!!COM-rism: pe41024148
!!!CDT: ~1809-~1887
!!!CNT: Ukrainian
!!!OTL: Czego chcesz od nas Panie
!!!PDT:
!!!SMS-siglum: PL-Kk
!!!SMS-shelfmark: Kk.I.382
!!!NIFC-rismID: 1001140920
!!!URL-scan: http://repozytorium.nifc.pl/skany/pl-kk-nut--i-382
!!!ONB-nifc: UWAGA: obsada : S/T1, A/B1, T2, B2. Skan 0041, 0183, 00128, 0260
!!!SMS-variant:
!!!SMS-altvar:
**kern	**text	**dynam	**kern	**text	**dynam	**kern	**text	**dynam	**kern	**text	**dynam
*part4	*part4	*part4	*part3	*part3	*part3	*part2	*part2	*part2	*part1	*part1	*part1
*staff4	*staff4	*	*staff3	*staff3	*	*staff2	*staff2	*	*staff1	*staff1	*
*I"Basso II	*	*	*I"Tenore II	*	*	*I"Alto vel Basso I	*	*	*I"Soprano vel Tenore I.	*	*
*I'B II	*	*	*I'T II	*	*	*I'A vel B I	*	*	*I'S vel T I	*	*
*clefF4	*	*	*clefGv2	*	*	*clefF4	*	*	*clefG2	*	*
*k[b-e-]	*	*	*k[b-e-]	*	*	*k[b-e-]	*	*	*k[b-e-]	*	*
*M4/4	*	*	*M4/4	*	*	*M4/4	*	*	*M4/4	*	*
*met(c)	*	*	*met(c)	*	*	*met(c)	*	*	*met(c)	*	*
!	!	!	!	!	!	!LO:TX:t=P:problem:prawdopodobnie partia powinna zostać zapisana w kluczu wiolinowym oktawę wyżej	!	!	!LO:TX:a:t=Wiersz J. Kochanowskiego \nMuzyka M. Rudkowskiego	!	!
!	!	!	!	!	!	!LO:TX:t=P:problem:skreślony klucz wiolinowy na początku systemu [prawdopodobnie partia powinna zostac	!	!	!	!	!
!LO:TX:rj:a:B:t=Maestoso	!	!	!LO:TX:t=P:problem:w źródle klucz bez przenośnika oktawowego [problem #290]	!	!	!LO:TX:rj:a:B:t=Maestoso	!	!	!LO:TX:rj:a:B:t=Maestoso	!	!
!LO:TX:a:t=dolce	!	!LO:DY:rj	!LO:TX:rj:a:B:t=Maestoso.	!	!	!LO:TX:a:t=dolce	!	!LO:DY:rj	!LO:TX:a:t=dolce	!	!LO:DY:rj
8BB-/	Cze-	p	8B-\	Cze-	.	8F\	Cze-	p	8dd\	Cze-	p
8BB-/	-go	.	8B-\	-go	.	8F\	-go	.	8dd\	-go	.
=1	=1	=1	=1	=1	=1	=1	=1	=1	=1	=1	=1
2D\	chcesz	.	2c\	chcesz	.	2F#X\	chcesz	.	2dd\	chcesz	.
4G\	od	.	4B-\	od	.	4G\	od	.	4dd\	od	.
.	.	.	.	.	.	.	.	.	8qff/	.	.
4D\	nas,	.	4c\	nas	.	4G\	nas	.	4ee-\	nas,	.
=2	=2	=2	=2	=2	=2	=2	=2	=2	=2	=2	=2
2Fn\	Pa-	.	2B-\	Pa-	.	2Fn\	Pa-	.	2dd^\	Pa-	.
4FF/	-nie,	.	4A/	-nie	.	4F\	-nie,	.	4cc\	-nie,	.
4F\	za	.	4A/	za	.	4F\	za	.	4cc\	za	.
=3	=3	=3	=3	=3	=3	=3	=3	=3	=3	=3	=3
(4.AA/	Twe	.	(4.c\	Twe	.	2F\	Twe	.	(4.ee-^\	Twe	.
8BB-/)	.	.	8B-\)	.	.	.	.	.	8dd\)	.	.
(8E-\L	hoj-	.	(8A/L	hoj-	.	4F\	hoj-	.	(8cc\L	hoj-	.
!	!	!	!LO:TX:a:t=b	!	!	!	!	!	!	!	!
8D\J)	.	<	8B-/J)	.	.	.	.	.	8dd\J)	.	.
(8C\L	-ne	.	4c\	-ne	<	4F\	-ne	.	(8ee-\L	-ne	.
8AA\J)	.	[[	.	.	.	.	.	.	8ff\J)	.	.
!LO:LB:g=original	!	!	!LO:LB:g=original	!	!	!LO:LB:g=original	!	!	!LO:LB:g=original	!	!
=4	=4	=4	=4	=4	=4	=4	=4	=4	=4	=4	=4
2BB-/	da-	.	2c\	da-	[	2F\	da-	.	2ee-^\	da-	.
4BB-/	-ry,	.	4B-\	-ry,	.	4F\	-ry	.	4dd\	-ry,	.
8BB-/	Cze-	.	8B-\	Cze-	.	8F\	cze-	.	8dd\	Cze-	.
8BB-/	-go	.	8B-\	-go	.	8F\	-go	.	8dd\	-go	.
=5	=5	=5	=5	=5	=5	=5	=5	=5	=5	=5	=5
2BB-/	za	<	2G/	za	<	2En\	za	<	2cc\	za	<
4BB-/	do-	.	4G/	do-	.	4F\	do-	.	4dd\	do-	.
4BB-/	-bro-	.	4c\	-bro-	.	4G\	-bro-	.	4een\	-bro-	.
=6	=6	=6	=6	=6	=6	=6	=6	=6	=6	=6	=6
2AA/	-dziej-	.	2c\	-dziej-	.	2A\	-dziej-	.	2ff\	-dziej-	.
4F\	-stwa,	.	4A/	-stwa,	.	4F\	-stwa	.	4cc\	-stwa	.
.	.	f	.	.	f	.	.	f	.	.	f
8AA/	któ-	.	8c\	któ-	.	8F\	któ-	.	8ff\	któ-	.
8AA/	-rym	.	8c\	-rym	.	8F\	-rym	.	8ff\	-rym	.
=7	=7	=7	=7	=7	=7	=7	=7	=7	=7	=7	=7
2BB-/	nie	.	(4c\	nie	.	2F\	nie	.	(4een\	nie	.
.	.	.	4B-\)	.	.	.	.	.	4dd\)	.	.
2BB-/	masz	.	(4A/	masz	.	(4En\	masz	.	(4cc\	masz	.
.	.	.	4G/)	.	.	4D\)	.	.	4b-\)	.	.
!LO:LB:g=original	!	!	!LO:LB:g=original	!	!	!LO:LB:g=original	!	!	!LO:LB:g=original	!	!
=8	=8	=8	=8	=8	=8	=8	=8	=8	=8	=8	=8
2C^>/	mia-	.	2G^>/	mia-	.	2En^\	mi-	.	2b-^\	mia-	.
4D\	-ry?	.	4F/	-ry?	.	4F\	-ry?	.	4a/	-ry?	.
.	.	p	.	.	p	.	.	p	.	.	p
8F\	Ko-	.	8F/	Ko-	.	8F\	Ko-	.	8f/	Ko-	.
8F\	-ścioł	.	8F/	-ściół	.	8F\	-ściół	.	8f/	-ścioł	.
=9	=9	=9	=9	=9	=9	=9	=9	=9	=9	=9	=9
(4AA/	Cię	.	(4c\	Cię	.	2F\	Cię	.	2ee-^\	Cie	.
4C/)	.	.	4A/)	.	.	.	.	.	.	.	.
4BB-/	nie	.	4B-\	nie	.	4F\	nie	.	4dd\	nie	.
4E-\	o-	.	4A/	o-	.	4F\	o-	.	4cc\	o-	.
=10	=10	=10	=10	=10	=10	=10	=10	=10	=10	=10	=10
2D\	-gar-	.	2B-\	-gar-	.	2F\	-gar-	.	2ff^\	-gar-	.
4BB-/	-nie	.	4B-\	-nie	.	4F\	-nie,	.	4dd\	-nie,	.
8G\	wszę-	.	8B-\	wszę-	.	8G\	wszę-	.	8dd\	wszę-	.
8G\	-dy	.	8B-\	-dy	.	8G\	-dy	.	8dd\	-dy	.
=11	=11	=11	=11	=11	=11	=11	=11	=11	=11	=11	=11
(4BB-/	peł-	.	(2B-\	peł-	.	(2F\	peł-	.	(4dd\	peł-	.
4D/	.	.	.	.	.	.	.	.	4ff\	.	.
4E-\)	.	.	4c\)	.	.	4G\)	.	<	4ee-\)	.	<
4En\	-no	.	4B-\	-no	.	4G\	-no	[[	4dd\	-no	[[
!LO:LB:g=original	!	!	!LO:LB:g=original	!	!	!LO:LB:g=original	!	!	!LO:LB:g=original	!	!
=12	=12	=12	=12	=12	=12	=12	=12	=12	=12	=12	=12
2F\	Cie-	.	2B-\	Cie-	.	2F\	Cie-	.	2dd^\	Cie-	.
4F\	-bie:	.	4A/	-bie:	.	4F\	-bie:	.	4cc\	-bie:	.
8F\	I	.	8c\	I	.	8A\	I	.	8cc\	I	.
8F\	w_o-	.	8c\	w_o-	.	8A\	w_o-	.	8cc\	w_o-	.
=13	=13	=13	=13	=13	=13	=13	=13	=13	=13	=13	=13
2F#X\	-tchła-	<	2c\	-tchła-	<	2A\	-tchła-	<	2dd^\	-tchła-	.
.	.	.	.	.	.	.	.	.	.	.	<
4G\	-niach	.	4B-\	-niach	.	4B-\	-niach	.	4dd\	-niach	.
4Fn\	i	.	4B-\	i	.	4A-X\	i	.	4dd\	i	.
=14	=14	=14	=14	=14	=14	=14	=14	=14	=14	=14	=14
!	!	!LO:DY:rj	!	!	!LO:DY:rj	!	!	!LO:DY:rj	!	!	!LO:DY:rj
2E-\	w_mo-	p	2B-\	w_mo-	f	2G\	w_mo-	p	2ee-^\	w_mo-	f
4E-;\	-rzu,	.	4B-;\	-rzu,	.	4G;\	-rzu,	.	4ee-;\	-rzu,	.
4En\	na	.	4B-\	na	.	4G\	na	.	4cc\	na	.
=15	=15	=15	=15	=15	=15	=15	=15	=15	=15	=15	=15
(4F\	zie-	.	2B-\	zie-	.	(4F\	zie-	.	(4dd\	zie-	.
4E-\)	.	.	.	.	.	4G\)	.	.	4ee-\)	.	.
4F\	-mi	.	4A/	-mi	.	4F\	-mi	.	4cc\	-mi	.
4BB-/	i	.	4B-/	i	.	4F\	i	.	4dd\	i	.
=16	=16	=16	=16	=16	=16	=16	=16	=16	=16	=16	=16
2FF/	w nie-	.	2A^>/	w nie-	.	(4F\	w Nie-	.	2cc^\	w nie-	.
.	.	.	.	.	.	4E-\)	.	.	.	.	.
4BB-;/	-bie.	.	4F;/	-bie.	.	4D;\	-bie	.	4b-;\	-bie	.
==	==	==	==	==	==	==	==	==	==	==	==
*-	*-	*-	*-	*-	*-	*-	*-	*-	*-	*-	*-
!!!system-decoration: [(s1,s2,s3,s4)]
!!!RDF**kern: > = above
!!!RDF**kern: < = below
!!!EED: Leszek Kubiak
!!!EST: 2021-02-11
!!!ENC: Andrzej Kubiczek
!!!END: 2021-01-31
